X:1
T:Elno, LM
T:Elno, LM
T:Conrad Kocher (1786-1872)
T:Public Domain Courtesy of the Cyber Hymnal™
C:Conrad Kocher (1786-1872)
Z:Public Domain
Z:Courtesy of the Cyber Hymnal™
%%score ( 1 2 ) ( 3 4 )
L:1/8
Q:1/4=110
M:4/4
K:G
V:1 treble 
V:2 treble 
V:3 bass 
V:4 bass 
V:1
 D2 [EG]2 [FA]2 | [DB]2 [EG]2 [Fd]2 (dc) | !fermata![GB]2 [GB]2 [EA]2 [Ad]2 | %3
 [GB]2 [Ge]2 [Fd]2 [E^c]2 | !fermata![Fd]2 [Fd]2 [EG]2 [FA]2 | [DB]2 [EG]2 [Fd]2 (dc) | %6
 !fermata![GB]2 [Gd]2 [EG]2 [Ec]2 | [DF]2 (GA) [DB]2 A2 | !fermata![B,G]2 |] %9
V:2
 D2 x4 | x6 A2 | x8 | x8 | x8 | x6 A2 | x8 | x2 D2 x (DC) x | x2 |] %9
V:3
 [B,,G,]2 [B,,E,]2 D,2 | [D,G,]2 [G,,E,]2 [A,,D,]2 [D,F,]2 | %2
 !fermata![D,G,]2 [D,G,]2 (A,G,) [A,,F,]2 | (G,F,) [B,,E,]2 (F,G,) [A,,A,]2 | %4
 !fermata![A,,D,]2 D,2 [B,,E,]2 D,2 | [G,,G,]2 [G,,E,]2 [A,,D,]2 [D,F,]2 | %6
 !fermata![D,G,]2 [B,,D,]2 [B,,E,]2 A,,2 | (D,C,) ([G,,B,,][F,,A,,]) G,,2 [F,,D,]2 | %8
 !fermata!G,,2 |] %9
V:4
 x4 D,2 | x8 | x4 ^C,2 x2 | B,,2 x A,,2 x3 | x2 (D,C,) x D,2 x | x8 | x6 A,,2 | %7
 A,,2 x (G,, B,,) x3 | G,,2 |] %9

